dist/svgs/ol.svg

<svg xmlns="http://www.w3.org/2000/svg" viewBox="0 0 512 512"><path d="M117 365h396v71H117v-71zm0-144h396v72H117v-72zM513 78v72H117V78h396zM81 313H3v-4q2-15 7-24 4-5 8-9.5t10-8.5q2-2 5-3.5t6-3.5q3-3 9-7 3-3 7-9 3-3 3-9 0-3-1-5 0-1-2-5-2-2-4-3-2-2-6.5-2t-7.5 2q-3 1-4 4-2 2-2 3.5t-1 3.5q-1 3-1 10v3H5v-3q0-9 3-17 4-10 7-14 6-6 13-9 4-2 8-3t9-1q7 0 17 4 8 3 11 9 3 3 7 11 1 4 1 12v6.5l-2 5.5q-1 4-5 10-2 2-4 4.5t-4 4.5-4.5 3.5T57 273l-9 6q-2 2-4 2.5t-4 2.5q-3 2-7 6v1h48v22zm-13 81q5 3 8 8 6 8 6 19 0 9-4 14-3 6-8 11-5 4-13 7-8 2-15 2-10 0-16-3-6-1-13-8-6-6-7-12-3-7-3-16v-3h23v3q0 9 4 14 5 5 12 5 8 0 12-4 5-5 5-11 0-4-2-8-1-2-5-4t-8-2q-2 0-3.5-.5T37 405l-5 1v-19h4q2 0 3.5-.5t3.5-.5 6-2q3-1 4-4 2-4 2-6 0-4-4-8-3-4-9-4-4 0-6 2-2 1-5 4-2 2-2 5-1 3-1 7v3H5v-3q0-7 3-15 4-8 7-12 3-2 5.5-4t6.5-4q14-5 28-1 7 2 11 6 6 3 9 9t3 14q0 7-4 15-2 2-3 3.5t-3 2.5zM34 95H8V74h13q6-2 8-3 4-1 6-5 2-2 4-7v-2h20v113H34V95z"/></svg>

<?xml version="1.0" encoding="UTF-8" standalone="no"?><svg   xmlns:svg="http://www.w3.org/2000/svg"   xmlns="http://www.w3.org/2000/svg"   version="1.1"   width="512"   height="512"   viewBox="0 0 512 512">  <path     d="M117 365H513V436H117V365zM117 221H513V293H117V221zM513 78V150H117V78H513zM81 313H3V309Q5 294 10 285Q14 280 18 275.5T28 267Q30 265 33 263.5T39 260Q42 257 48 253Q51 250 55 244Q58 241 58 235Q58 232 57 230Q57 229 55 225Q53 223 51 222Q49 220 44.5 220T37 222Q34 223 33 226Q31 228 31 229.5T30 233Q29 236 29 243V246H5V243Q5 234 8 226Q12 216 15 212Q21 206 28 203Q32 201 36 200T45 199Q52 199 62 203Q70 206 73 212Q76 215 80 223Q81 227 81 235V241.5T79 247Q78 251 74 257Q72 259 70 261.5T66 266T61.5 269.5T57 273L48 279Q46 281 44 281.5T40 284Q37 286 33 290V291H81V313zM68 394Q73 397 76 402Q82 410 82 421Q82 430 78 435Q75 441 70 446Q65 450 57 453Q49 455 42 455Q32 455 26 452Q20 451 13 444Q7 438 6 432Q3 425 3 416V413H26V416Q26 425 30 430Q35 435 42 435Q50 435 54 431Q59 426 59 420Q59 416 57 412Q56 410 52 408T44 406Q42 406 40.5 405.5T37 405L32 406V387H36Q38 387 39.5 386.5T43 386T49 384Q52 383 53 380Q55 376 55 374Q55 370 51 366Q48 362 42 362Q38 362 36 364Q34 365 31 368Q29 370 29 373Q28 376 28 380V383H5V380Q5 373 8 365Q12 357 15 353Q18 351 20.5 349T27 345Q41 340 55 344Q62 346 66 350Q72 353 75 359T78 373Q78 380 74 388Q72 390 71 391.5T68 394zM34 95H8V74H11H21Q27 72 29 71Q33 70 35 66Q37 64 39 59V57H59V170H34V95z"     id="ol" /></svg>
